X:1
T:All The Good Times
M:3/4
L:1/4
K:Dbmaj
F3/2 E/2 F| D2 E| D- C B,| A,3| F3/2 E/2 F| D2 B,| C- E2-| E2 z| F3/2 E/2 F|\
D2 D| D- C B,| A,2 A,/2A,/2| A, D D/2D/2| C- D E| D3-| D2 z|X:1
T:All The Good Times
M:3/4
L:1/4
K:G
 B3/2 A/2 B| G2 A| G- F E| D3| B3/2 A/2 B| G2 E| F- A2-| A2 z| B3/2 A/2 B|\
 G2 G| G- F E| D2 D/2D/2| D G G/2G/2| F- G A| G3-| G2 z|

